material/.icons/material/steam.svg

<svg xmlns="http://www.w3.org/2000/svg" viewBox="0 0 24 24"><path d="M12 2a10 10 0 0110 10 10 10 0 01-10 10c-4.6 0-8.45-3.08-9.64-7.27l3.83 1.58a2.843 2.843 0 002.78 2.27c1.56 0 2.83-1.27 2.83-2.83v-.13l3.4-2.43h.08c2.08 0 3.77-1.69 3.77-3.77s-1.69-3.77-3.77-3.77-3.78 1.69-3.78 3.77v.05l-2.37 3.46-.16-.01c-.59 0-1.14.18-1.59.49L2 11.2C2.43 6.05 6.73 2 12 2M8.28 17.17c.8.33 1.72-.04 2.05-.84.33-.8-.05-1.71-.83-2.04l-1.28-.53c.49-.18 1.04-.19 1.56.03.53.21.94.62 1.15 1.15.22.52.22 1.1 0 1.62-.43 1.08-1.7 1.6-2.78 1.15-.5-.21-.88-.59-1.09-1.04l1.22.5m9.52-7.75c0 1.39-1.13 2.52-2.52 2.52a2.52 2.52 0 01-2.51-2.52 2.5 2.5 0 012.51-2.51 2.52 2.52 0 012.52 2.51m-4.4 0c0 1.04.84 1.89 1.89 1.89 1.04 0 1.88-.85 1.88-1.89s-.84-1.89-1.88-1.89c-1.05 0-1.89.85-1.89 1.89z"/></svg>

<?xml version="1.0" encoding="UTF-8"?><!DOCTYPE svg PUBLIC "-//W3C//DTD SVG 1.1//EN" "http://www.w3.org/Graphics/SVG/1.1/DTD/svg11.dtd"><svg xmlns="http://www.w3.org/2000/svg" xmlns:xlink="http://www.w3.org/1999/xlink" version="1.1" id="mdi-steam" width="24" height="24" viewBox="0 0 24 24"><path d="M12,2A10,10 0 0,1 22,12A10,10 0 0,1 12,22C7.4,22 3.55,18.92 2.36,14.73L6.19,16.31C6.45,17.6 7.6,18.58 8.97,18.58C10.53,18.58 11.8,17.31 11.8,15.75V15.62L15.2,13.19H15.28C17.36,13.19 19.05,11.5 19.05,9.42C19.05,7.34 17.36,5.65 15.28,5.65C13.2,5.65 11.5,7.34 11.5,9.42V9.47L9.13,12.93L8.97,12.92C8.38,12.92 7.83,13.1 7.38,13.41L2,11.2C2.43,6.05 6.73,2 12,2M8.28,17.17C9.08,17.5 10,17.13 10.33,16.33C10.66,15.53 10.28,14.62 9.5,14.29L8.22,13.76C8.71,13.58 9.26,13.57 9.78,13.79C10.31,14 10.72,14.41 10.93,14.94C11.15,15.46 11.15,16.04 10.93,16.56C10.5,17.64 9.23,18.16 8.15,17.71C7.65,17.5 7.27,17.12 7.06,16.67L8.28,17.17M17.8,9.42C17.8,10.81 16.67,11.94 15.28,11.94C13.9,11.94 12.77,10.81 12.77,9.42A2.5,2.5 0 0,1 15.28,6.91C16.67,6.91 17.8,8.04 17.8,9.42M13.4,9.42C13.4,10.46 14.24,11.31 15.29,11.31C16.33,11.31 17.17,10.46 17.17,9.42C17.17,8.38 16.33,7.53 15.29,7.53C14.24,7.53 13.4,8.38 13.4,9.42Z" /></svg>
